src/icons/icons_set_01/055-vtt.svg

<svg height="50" viewBox="0 0 50 50" width="50" xmlns="http://www.w3.org/2000/svg"><path d="m8.5 33v1c-4.68751202 0-8.5-3.812488-8.5-8.5s3.81248798-8.5 8.5-8.5c4.687512 0 8.5 3.812488 8.5 8.5s-3.812488 8.5-8.5 8.5zm0 0v-1c3.5829425 0 6.5-2.9170575 6.5-6.5s-2.9170575-6.5-6.5-6.5c-3.58294252 0-6.5 2.9170575-6.5 6.5s2.91705748 6.5 6.5 6.5zm24 0v1c-4.687512 0-8.5-3.812488-8.5-8.5s3.812488-8.5 8.5-8.5 8.5 3.812488 8.5 8.5-3.812488 8.5-8.5 8.5zm0 0v-1c3.5829425 0 6.5-2.9170575 6.5-6.5s-2.9170575-6.5-6.5-6.5-6.5 2.9170575-6.5 6.5 2.9170575 6.5 6.5 6.5zm-6.0718169-27.05712c-1.5844068 0-2.8602712-1.2852-2.8602712-2.8812 0-1.5876 1.2758644-2.8728 2.8602712-2.8728 1.5760677 0 2.8602711 1.2852 2.8602711 2.8728 0 1.596-1.2842034 2.8812-2.8602711 2.8812zm-2.9356178 13.1868445c.473511.2680015.6458607.8653995.3878714 1.3444391l-3.8945312 7.2314453c-.2618734.4862518-.8683486.6681465-1.3546004.4062731-.4862518-.2618733-.6681464-.8683485-.4062731-1.3546003l3.4302318-6.3693246-11.3275166-6.4112363c-.678564-.384059-.67606847-1.3624599.0044459-1.7430523l10.438379-5.83789065c.4470724-.25003496 1.010795-.12180924 1.3057294.29700438l4.7765458 6.78280367h4.1471527c.5522847 0 1 .4477153 1 1 0 .5522848-.4477153 1-1 1h-4.6660156c-.3253168 0-.6303016-.1582453-.81761-.4242275l-4.5562887-6.47003362-8.1003951 4.53032222z" transform="translate(4 9)"/></svg>

<?xml version="1.0" encoding="UTF-8"?>
<svg width="50px" height="50px" viewBox="0 0 50 50" version="1.1" xmlns="http://www.w3.org/2000/svg" xmlns:xlink="http://www.w3.org/1999/xlink">
    <!-- Generator: Sketch 52.6 (67491) - http://www.bohemiancoding.com/sketch -->
    <title>055-vtt</title>
    <desc>Created with Sketch.</desc>
    <g id="055-vtt" stroke="none" stroke-width="1" fill="none" fill-rule="evenodd">
        <g id="wheels" transform="translate(4.000000, 9.000000)" fill="#000000" fill-rule="nonzero">
            <path d="M8.5,33 L8.5,34 C3.81248798,34 0,30.187512 0,25.5 C0,20.812488 3.81248798,17 8.5,17 C13.187512,17 17,20.812488 17,25.5 C17,30.187512 13.187512,34 8.5,34 L8.5,33 Z M8.5,33 L8.5,32 C12.0829425,32 15,29.0829425 15,25.5 C15,21.9170575 12.0829425,19 8.5,19 C4.91705748,19 2,21.9170575 2,25.5 C2,29.0829425 4.91705748,32 8.5,32 L8.5,33 Z M32.5,33 L32.5,34 C27.812488,34 24,30.187512 24,25.5 C24,20.812488 27.812488,17 32.5,17 C37.187512,17 41,20.812488 41,25.5 C41,30.187512 37.187512,34 32.5,34 L32.5,33 Z M32.5,33 L32.5,32 C36.0829425,32 39,29.0829425 39,25.5 C39,21.9170575 36.0829425,19 32.5,19 C28.9170575,19 26,21.9170575 26,25.5 C26,29.0829425 28.9170575,32 32.5,32 L32.5,33 Z M26.4281831,5.94288 C24.8437763,5.94288 23.5679119,4.65768 23.5679119,3.06168 C23.5679119,1.47408 24.8437763,0.18888 26.4281831,0.18888 C28.0042508,0.18888 29.2884542,1.47408 29.2884542,3.06168 C29.2884542,4.65768 28.0042508,5.94288 26.4281831,5.94288 Z M23.4925653,19.1297245 C23.9660763,19.397726 24.138426,19.995124 23.8804367,20.4741636 L19.9859055,27.7056089 C19.7240321,28.1918607 19.1175569,28.3737554 18.6313051,28.111882 C18.1450533,27.8500087 17.9631587,27.2435335 18.225032,26.7572817 L21.6552638,20.3879571 L10.3277472,13.9767208 C9.6491832,13.5926618 9.65167873,12.6142609 10.3321931,12.2336685 L20.7705721,6.39577785 C21.2176445,6.14574289 21.7813671,6.27396861 22.0763015,6.69278223 L26.8528473,13.4755859 L31,13.4755859 C31.5522847,13.4755859 32,13.9233012 32,14.4755859 C32,15.0278707 31.5522847,15.4755859 31,15.4755859 L26.3339844,15.4755859 C26.0086676,15.4755859 25.7036828,15.3173406 25.5163744,15.0513584 L20.9600857,8.58132478 L12.8596906,13.111647 L23.4925653,19.1297245 Z" id="Combined-Shape"></path>
        </g>
        <g id="biker" transform="translate(27.000000, 9.000000)"></g>
    </g>
</svg>
